X:1
T:Victorious
T:William James Kirkpatrick
T:Victorious
T:Public Domain
T:Public Domain
C:William James Kirkpatrick
Z:Public Domain
%%score ( 1 2 ) ( 3 4 )
L:1/8
M:4/4
K:Bb
V:1 treble 
V:2 treble 
V:3 bass 
V:4 bass 
V:1
 F2 | [DB]3 [DF] [DF]2 F2 | [FB]3 [DF] [DF]4 | [FB]2 [FB][FB] [Fc]2 [Fc]2 | [Fd]3 [Fc] [Fc]4 | %5
w: 1.~Vic-|ri- ous! Vic- to-|ous! Christ has|a- ris- en glo- ri-|ous; Where the|
w: 2.~Vic-|ri- ous! Vic- to-|ous! Christ has|a- ris- en glo- ri-|ous; Where the|
w: 3.~Vic-|ri- ous! Vic- to-|ous! Christ has|a- ris- en glo- ri-|ous; On His|
"^Semichorus" [Fd]3 [Fd] [Bd]2 c2 | [GB]2 [^FA]2 G4 | [Ge]3 [Ge] [Ge]2 [Gd]2 | [Gc]2 [GB]2 [FA]4 | %9
w: fun- ’ral knell was|tolled Be the|of tri- umph rolled,|Let the palm’s|
w: hea- vy tomb was|sealed Gates of|a- dise re- vealed,|Where the mourn-|
w: brow the con- queror’s|wreath, In His|the keys of death,|He shall bur-|
 [DB]3 [DB] [EB]2 [=EB]2 | [FB]2 (cd) [Ge]2 [EG][EG] | [DF]2 [DF]2 [CF]2 [EF]2 | %12
w: green branch- es wave|O’er the * slum- ber of|grave; From its gloom|
w: ers wept a- round,|Faith looks * up, with glo-|crowned. O’er the grave,|
w: ied hopes re- store,|He shall * live for- ev-|more. O- ver death|
 [DF]6 z2"^Refrain" ||"^Full Chorus" B2 F2 D2 F2 | B3 B B4 | [Fd]2 [Fc]2 [FB]2 [Fc]2 | %16
w: vic-|to- ri- ous, Christ|ri- ous, Christ|glo- ri- ous. *|
w: vic-|to- ri- ous, Christ|ri- ous, Christ|glo- ri- ous. *|
w: vic-|to- ri- ous, Christ|ri- ous, Christ|glo- ri- ous. *|
 !>![Fd]3 [Fc] [Fc]4 | (B2 A2 B2) [Af]2 | (B2 A2 B2) [Fd]2 | [Ac]6 [FB] | [FB]6 z2 |] %21
w: |||||
w: |||||
w: |||||
V:2
 F2 | x6 F2 | x8 | x8 | x8 | x8 | x4 G4 | x8 | x8 | x8 | x2 _A2 x4 | x8 | x8 || B2 F2 D2 F2 | %14
w: to-|ri-|||||hymn||||the|||has ris- en glo-|
w: to-|ri-|||||Par-||||ry|||has ris- en glo-|
w: to-|ri-|||||hand||||er-|||has ris- en glo-|
 B3 B B4 | x8 | x8 | f6 x2 | f6 x2 | x7 | x8 |] %21
w: has ris- en|||||||
w: has ris- en|||||||
w: has ris- en|||||||
V:3
 F,2 | [B,,F,]3 [B,,B,] [B,,B,]2 F,2 | [B,,D]3 [B,,B,] [B,,B,]4 | %3
w: ~|~ ~ ~ ~|~ ~ ~|
 [D,B,]2 [D,B,][D,B,] [F,A,]2 [F,A,]2 | B,3 [F,A,] [F,A,]4 | [B,,B,]3 [B,,D] [B,,F]2 [C,E]2 | %6
w: ~ ~ ~ ~ ~|~ ~ ~|~ ~ ~ ~|
 [D,D]2 [D,C]2 [E,B,]4 | [C,C]3 [C,C] [C,C]2 [D,^B,]2 | [E,C]2 [=E,C]2 [F,C]4 | %9
w: ~ ~ ~|~ ~ ~ ~|~ ~ ~|
 [G,B,]3 [G,B,] [_G,B,]2 [G,^C]2 | [F,D]2 [F,B,]2 [E,B,]2 [E,B,][E,B,] | %11
w: ~ ~ ~ ~|~ ~ ~ ~ ~|
 [F,B,]2 [F,B,]2 [F,,F,A,]2 [F,,F,C]2 | [B,,B,]6 z2 || B,2 F,2 D,2 F,2 | B,3 B, B,4 | %15
w: ~ ~ ~ ~|~|~ ~ ~ ~|~ ~ ~|
 B,2 [F,A,]2 [D,B,]2 [F,A,]2 | !>!B,3 [F,A,] [F,A,]4 | [B,D]2 [F,C]2 [B,D]2 [F,C]2 | %18
w: jah, Christ has ris-|glo- ri- ous.||
 [B,D]2 [F,C]2 [D,B,]2 [B,,B,]2 | [F,E]6 [B,,D] | [B,,D]6 z2 |] %21
w: |||
V:4
 F,2 | x6 F,2 | x8 | x8 | B,3 x5 | x8 | x8 | x8 | x8 | x8 | x8 | x8 | x8 || B,2 F,2 D,2 F,2 | %14
w: ~|~|||~|||||||||~ ~ ~ ~|
 B,3 B, B,4 | B,2 x6 | B,3 x5 | x8 | x8 | x7 | x8 |] %21
w: Hal- le- lu-|en||||||

